X: 491
%
U:~=!turn!
T: Mrs. Moray of Abercairny
C:Neil Gow
O:Scotland
B:Keith Norman MacDonald : "The Skye collection of the best reels & strathspeys extant" : 1887
Z:Ralph Palmer
N:Three tunes of this name, or Mrs. Moray of Abercairny, in this collection.
R:Strathspey
M:C
L:1/8
K:G aeolian
D | G<GTB>G d<GB<g | F>FA>F c<FA<f | G<GTB>G d<GB<g | Tf>d{/d}c>A B<GTG :|
d | g<bd<b c<aB<g | A>fc>f A<FF>A | g<bd<b c<aB<g | A>gd>g B<GG>d |
g<bd>b c<aB<g | A>fc>f A<FTF>A | G<GTB>G d<GB<g | ~f>d{/d}c<A BGG |]


